X:12607
T:Paddy Fahy's
R:reel
S:
H:
N:
D:Galway Sessions
Z:Adrian Scahill
M:4/4
L:1/8
K:G
G,2B,D GBdB|c2ag fgdc|BGG2 BcdB|c2AG FDCA,|\
G,2B,D GBdB|c2ag fgdc|BGG2 BcdB|cAFA G2DB,||\
g3f gdBG|FGAB c2Bc|Aaa^g abag|fdd2 bdad|\
g3f gdBG|FGAB c2Bc|dgg2 defd|cAFA G4:||\
